src/svgs/top_shape.svg

<svg fill="none" height="184" viewBox="0 0 207 184" width="207" xmlns="http://www.w3.org/2000/svg"><g fill="#2b4570"><path d="m103.23-73.074c31.166 13.0834 102.23 63.92539 103.27 99.2556.978 35.3924-68.071 55.1993-90.388 85.1924-22.2507 29.928-45.7978 54.977-74.7551 65.98-29.0156 10.996-63.4959 7.941-88.2189-7.417-24.6571-15.299-39.4909-42.949-55.955-70.2759-16.46-27.2574-34.414-54.2586-37.993-86.4646-3.644-32.1399 7.157-69.6125 31.946-83.7982 24.7894-14.1856 63.4962-5.0727 102.53298-5.3987 39.03672-.326 78.33352-10.0833 109.56102 2.9264z"/><path d="m103.23-73.074c31.166 13.0834 102.23 63.92539 103.27 99.2556.978 35.3924-68.071 55.1993-90.388 85.1924-22.2507 29.928-45.7978 54.977-74.7551 65.98-29.0156 10.996-63.4959 7.941-88.2189-7.417-24.6571-15.299-39.4909-42.949-55.955-70.2759-16.46-27.2574-34.414-54.2586-37.993-86.4646-3.644-32.1399 7.157-69.6125 31.946-83.7982 24.7894-14.1856 63.4962-5.0727 102.53298-5.3987 39.03672-.326 78.33352-10.0833 109.56102 2.9264z"/></g></svg>

<svg width="207" height="184" viewBox="0 0 207 184" fill="none" xmlns="http://www.w3.org/2000/svg">
<path d="M103.23 -73.074C134.396 -59.9906 205.46 -9.14861 206.5 26.1816C207.478 61.574 138.429 81.3809 116.112 111.374C93.8613 141.302 70.3142 166.351 41.3569 177.354C12.3413 188.35 -22.139 185.295 -46.862 169.937C-71.5191 154.638 -86.3529 126.988 -102.817 99.6611C-119.277 72.4037 -137.231 45.4025 -140.81 13.1965C-144.454 -18.9434 -133.653 -56.416 -108.864 -70.6017C-84.0746 -84.7873 -45.3678 -75.6744 -6.33102 -76.0004C32.7057 -76.3264 72.0025 -86.0837 103.23 -73.074Z" fill="#2B4570"/>
<path d="M103.23 -73.074C134.396 -59.9906 205.46 -9.14861 206.5 26.1816C207.478 61.574 138.429 81.3809 116.112 111.374C93.8613 141.302 70.3142 166.351 41.3569 177.354C12.3413 188.35 -22.139 185.295 -46.862 169.937C-71.5191 154.638 -86.3529 126.988 -102.817 99.6611C-119.277 72.4037 -137.231 45.4025 -140.81 13.1965C-144.454 -18.9434 -133.653 -56.416 -108.864 -70.6017C-84.0746 -84.7873 -45.3678 -75.6744 -6.33102 -76.0004C32.7057 -76.3264 72.0025 -86.0837 103.23 -73.074Z" fill="#2B4570"/>
</svg>
